svg/200/rounded/report-fill.svg

<svg xmlns="http://www.w3.org/2000/svg" width="48" height="48" viewBox="0 -960 960 960"><path d="M480-303.308q9.769 0 16.231-6.461 6.461-6.462 6.461-16.231 0-9-6.461-15.462-6.462-6.461-16.231-6.461-9.769 0-15.846 6.461Q458.077-335 458.077-326q0 9.769 6.077 16.231 6.077 6.461 15.846 6.461ZM480.027-415q6.819 0 11.088-4.289 4.27-4.288 4.27-11.096v-222.23q0-6.808-4.297-11.097Q486.792-668 479.973-668t-11.088 4.288q-4.27 4.289-4.27 11.097v222.23q0 6.808 4.297 11.096Q473.208-415 480.027-415ZM370.385-160q-11.573 0-22.133-4.615-10.56-4.616-17.791-12.616l-153.23-153.23q-8-7.231-12.616-17.791Q160-358.812 160-370.385v-219.23q0-11.573 4.615-22.133 4.616-10.56 12.616-18.56l153.23-153.231q7.231-7.23 17.791-11.846Q358.812-800 370.385-800h219.23q11.573 0 22.133 4.615 10.56 4.616 18.56 11.846l153.231 153.231q7.23 8 11.846 18.56Q800-601.188 800-589.615v219.23q0 11.573-4.615 22.133-4.616 10.56-11.846 17.791l-153.231 153.23q-8 8-18.56 12.616Q601.188-160 589.615-160h-219.23Z"/></svg>

<svg xmlns="http://www.w3.org/2000/svg" width="48" height="48" viewBox="0 -960 960 960"><path d="M480-303.31q9.77 0 16.23-6.46 6.46-6.46 6.46-16.23 0-9-6.46-15.46-6.46-6.46-16.23-6.46t-15.85 6.46q-6.07 6.46-6.07 15.46 0 9.77 6.07 16.23 6.08 6.46 15.85 6.46Zm.03-111.69q6.82 0 11.09-4.29 4.26-4.29 4.26-11.09v-222.24q0-6.8-4.29-11.09-4.3-4.29-11.12-4.29-6.82 0-11.09 4.29-4.26 4.29-4.26 11.09v222.24q0 6.8 4.29 11.09 4.3 4.29 11.12 4.29ZM370.38-160q-11.57 0-22.13-4.62-10.56-4.61-17.79-12.61L177.23-330.46q-8-7.23-12.61-17.79-4.62-10.56-4.62-22.13v-219.24q0-11.57 4.62-22.13 4.61-10.56 12.61-18.56l153.23-153.23q7.23-7.23 17.79-11.84 10.56-4.62 22.13-4.62h219.24q11.57 0 22.13 4.62 10.56 4.61 18.56 11.84l153.23 153.23q7.23 8 11.84 18.56 4.62 10.56 4.62 22.13v219.24q0 11.57-4.62 22.13-4.61 10.56-11.84 17.79L630.31-177.23q-8 8-18.56 12.61-10.56 4.62-22.13 4.62H370.38Z"/></svg>
